X:109
T: WEINT MIT MIR IHR NAECHTLICH STILLEN HAINE
N: B0139
O: Europa, Mitteleuropa, Deutschland, Thueringen
R: Ballade, Romanze
M: 4/4
L: 1/16
K: C
G,2G,2 | C6E,2E,2E,2D,2E,2 | G,2F,2F,4z4
G,2B,2 | D6F,2F,2F,2A,2G,2 | G,2C2C4z4
G,2G,2 | A,3B,C4z2C2B,2A,2 | G,3F,E,8
C2E2 | D6D2C3B,A,3B, | C4z8

